X:1
T:Fiddlin' Around
O:American
L:1/8
M:2/4
K:C
A/^A/ |\
B/g/^f/g/ a/g/f/g/ | =f/d/B/G/ D/B,/G, | E/E/c/E/ E/d/E/E/ | _d/E/E/c/ E/E/A/^A/ |
B/g/^f/g/ a/g/f/g/ | =f/d/B/G/ D/B,/G, | E/E/c/E/ E/d/E/E/ | c/E/E/d/ E/E/c/e/ |
f/e/f/g/ a/g/f/e/ | c/_bg/ a/g/e/f/ | g/e/f/g/ e/c/d/B/ | c3 :|
|: B- |\
B/B/g/B/ B/a/B/B/ | _a/B/B/=a/ B/B/g/B/ | c/c/g/c/ c/a/c/c/ | _b/c/c/a/ c/c/g/c/ |
B/B/g/B/ B/a/B/B/ | _a/B/B/=a/ B/B/g/B/ | c/c/g/c/ c/a/c/c/ | _b/c/c/a/ c/c/g/e/ |
f/e/f/g/ a/g/f/e/ | c/_bg/ a/g/e/f/ | g/e/f/g/ e/c/d/B/ | c3 :|
